X:229
T: Shenme hua kai shuang dui shuang
N: C0366
O: China, Zhejiang, Chunan
S: III, 643, 1)]
N: Vereinzelt Verzierungen.
R: Shange. Chang huahui]
M: 2/4
L: 1/16
K: G
A2ABd2d2 | e2dBA4 | ABd2e2dB | dAB2A4 | AGE6
E2G2A2B2 | ABA2G4 | A2B2AGEG | A4z4
A3BA2G2 | EFEDE4 | dd2BA2EG | A4z4
ABd2e2dB | dAB4A2 | AGE6

